SandboxApps/res/chess/king_b.svg

<?xml version="1.0" encoding="UTF-8" standalone="no"?>
<!-- Created with Inkscape (http://www.inkscape.org/) -->

<svg
   width="500mm"
   height="500mm"
   viewBox="0 0 500 500"
   version="1.1"
   id="svg1"
   xml:space="preserve"
   sodipodi:docname="king_b.svg"
   inkscape:version="1.3.2 (091e20e, 2023-11-25, custom)"
   xmlns:inkscape="http://www.inkscape.org/namespaces/inkscape"
   xmlns:sodipodi="http://sodipodi.sourceforge.net/DTD/sodipodi-0.dtd"
   xmlns="http://www.w3.org/2000/svg"
   xmlns:svg="http://www.w3.org/2000/svg"><sodipodi:namedview
     id="namedview1"
     pagecolor="#ffffff"
     bordercolor="#000000"
     borderopacity="0.25"
     inkscape:showpageshadow="2"
     inkscape:pageopacity="0.0"
     inkscape:pagecheckerboard="0"
     inkscape:deskcolor="#d1d1d1"
     inkscape:document-units="mm"
     inkscape:zoom="0.2973261"
     inkscape:cx="2387.9505"
     inkscape:cy="2778.0945"
     inkscape:window-width="3511"
     inkscape:window-height="2126"
     inkscape:window-x="318"
     inkscape:window-y="-11"
     inkscape:window-maximized="1"
     inkscape:current-layer="layer1" /><defs
     id="defs1" /><g
     inkscape:label="Layer 1"
     inkscape:groupmode="layer"
     id="layer1"><path
       id="piece"
       style="fill:#ff00ff;stroke:#000000;stroke-width:15;stroke-dasharray:none;stroke-opacity:1;fill-opacity:1"
       d="m 223.42512,31.569649 v 36.784835 h -16.56901 -17.92294 v 21.507214 21.507732 h 16.5871 c 9.12285,0 17.17987,0.95968 17.90485,2.13269 1.18355,1.91505 -7.12125,39.58466 -9.6175,43.62369 -0.56095,0.90763 -3.96785,0.18013 -7.5706,-1.61644 -19.9698,-9.95857 -64.58684,-15.52104 -87.03138,-10.8505 -19.13299,3.98148 -31.91087,10.76749 -45.089751,23.94634 -14.752983,14.75302 -21.171916,27.67268 -25.193811,50.7106 -6.630226,37.97881 3.080212,60.31073 45.404981,104.42412 12.123691,17.73186 29.873211,32.91043 43.125531,53.84632 h 217.57328 c 16.91163,-15.37136 13.35912,-13.85926 39.9092,-48.26423 38.92264,-50.43803 52.08829,-60.70041 52.08829,-92.0843 0,-38.25879 -18.85009,-70.87863 -49.63418,-85.89244 -26.72735,-13.03527 -73.31151,-10.39194 -113.03858,6.41408 -3.07966,1.30281 -4.67,-2.38125 -8.82892,-20.45353 -2.78989,-12.12334 -4.53132,-22.91893 -3.86953,-23.98975 0.66181,-1.0708 8.66727,-1.94665 17.79013,-1.94665 h 16.5871 V 89.861698 68.354484 h -17.92293 -17.92294 c 0.28434,-12.37715 0,-36.784835 0,-36.784835 z M 333.29387,209.40066 c 11.83228,0.084 26.8928,8.18397 31.39136,16.8832 8.46482,16.36917 2.37834,33.43409 -20.41994,57.25025 -3.28586,3.43258 -11.12535,11.80329 -17.42116,18.60145 -11.24998,12.14762 -11.68544,12.36049 -25.29148,12.36049 -7.61437,0 -14.56106,-0.71696 -15.4373,-1.59319 -0.87624,-0.87622 -1.59318,-20.21797 -1.59318,-42.98135 v -41.38817 l 9.32708,-6.17224 c 10.76462,-7.1237 28.76016,-13.03635 39.44462,-12.96044 z m -170.17566,0.007 c 10.68445,-0.0759 28.68,5.8373 39.44462,12.96097 l 9.32708,6.17223 v 41.38817 c 0,22.76336 -0.71695,42.10513 -1.59319,42.98136 -0.87622,0.87623 -7.82345,1.59267 -15.43781,1.59267 -13.60603,0 -14.041,-0.21236 -25.29097,-12.35997 -6.29579,-6.79817 -14.13531,-15.16887 -17.42115,-18.60145 -22.79826,-23.81615 -28.88528,-40.88111 -20.42046,-57.25025 4.49855,-8.69922 19.55961,-16.79973 31.39188,-16.88373 z m 0.38369,167.40909 c -11.07379,0.11373 -19.92185,0.38919 -23.82175,0.92237 -31.65968,4.32578 -45.04509,13.3225 -53.74724,29.22889 -7.87138,14.38792 -5.99588,64.07287 -5.99588,64.07287 h 170.06292 170.06301 c 0,0 1.87553,-49.68495 -5.99586,-64.07287 -8.70216,-15.90639 -22.08756,-24.90311 -53.74727,-29.22889 -65.55607,-0.14294 -131.22546,-1.30457 -196.81793,-0.92237 z" /></g></svg>

<?xml version="1.0" encoding="UTF-8" standalone="no"?>
<!-- Created with Inkscape (http://www.inkscape.org/) -->

<svg
   width="500mm"
   height="500mm"
   viewBox="0 0 500 500"
   version="1.1"
   id="svg1"
   xml:space="preserve"
   sodipodi:docname="king_b.svg"
   inkscape:version="1.3.2 (091e20e, 2023-11-25, custom)"
   xmlns:inkscape="http://www.inkscape.org/namespaces/inkscape"
   xmlns:sodipodi="http://sodipodi.sourceforge.net/DTD/sodipodi-0.dtd"
   xmlns="http://www.w3.org/2000/svg"
   xmlns:svg="http://www.w3.org/2000/svg"><sodipodi:namedview
     id="namedview1"
     pagecolor="#ffffff"
     bordercolor="#000000"
     borderopacity="0.25"
     inkscape:showpageshadow="2"
     inkscape:pageopacity="0.0"
     inkscape:pagecheckerboard="0"
     inkscape:deskcolor="#d1d1d1"
     inkscape:document-units="mm"
     inkscape:zoom="0.2973261"
     inkscape:cx="2389.6321"
     inkscape:cy="2781.4578"
     inkscape:window-width="3511"
     inkscape:window-height="2126"
     inkscape:window-x="318"
     inkscape:window-y="-11"
     inkscape:window-maximized="1"
     inkscape:current-layer="layer1" /><defs
     id="defs1" /><g
     inkscape:label="Layer 1"
     inkscape:groupmode="layer"
     id="layer1"><path
       style="fill:#ff0000;fill-opacity:1;stroke:#000000;stroke-width:15;stroke-linecap:round;stroke-linejoin:round;stroke-dasharray:none;stroke-opacity:1"
       d="m 163.5019,376.81646 c -11.07379,0.11373 -19.92185,0.38919 -23.82175,0.92237 -31.65968,4.32578 -45.04509,13.3225 -53.74724,29.22889 -7.87138,14.38792 -5.99588,64.07287 -5.99588,64.07287 h 170.06292 170.06301 c 0,0 1.87553,-49.68495 -5.99586,-64.07287 -8.70216,-15.90639 -22.08756,-24.90311 -53.74727,-29.22889 -65.55607,-0.14294 -131.22546,-1.30457 -196.81793,-0.92237 z"
       id="path3" /><path
       id="path2"
       style="fill:#ff0000;stroke:#000000;stroke-width:15;stroke-dasharray:none;stroke-opacity:1;fill-opacity:1"
       d="M 223.42512 31.569649 L 223.42512 68.354484 L 206.85611 68.354484 L 188.93317 68.354484 L 188.93317 89.861698 L 188.93317 111.36943 L 205.52027 111.36943 C 214.64312 111.36943 222.70014 112.32911 223.42512 113.50212 C 224.60867 115.41717 216.30387 153.08678 213.80762 157.12581 C 213.24667 158.03344 209.83977 157.30594 206.23702 155.50937 C 186.26722 145.5508 141.65018 139.98833 119.20564 144.65887 C 100.07265 148.64035 87.29477 155.42636 74.115889 168.60521 C 59.362906 183.35823 52.943973 196.27789 48.922078 219.31581 C 42.291852 257.29462 52.00229 279.62654 94.327059 323.73993 C 106.45075 341.47179 124.20027 356.65036 137.45259 377.58625 L 355.02587 377.58625 C 371.9375 362.21489 368.38499 363.72699 394.93507 329.32202 C 433.85771 278.88399 447.02336 268.62161 447.02336 237.23772 C 447.02336 198.97893 428.17327 166.35909 397.38918 151.34528 C 370.66183 138.31001 324.07767 140.95334 284.3506 157.75936 C 281.27094 159.06217 279.6806 155.37811 275.52168 137.30583 C 272.73179 125.18249 270.99036 114.3869 271.65215 113.31608 C 272.31396 112.24528 280.31942 111.36943 289.44228 111.36943 L 306.02938 111.36943 L 306.02938 89.861698 L 306.02938 68.354484 L 288.10645 68.354484 L 270.18351 68.354484 C 270.46785 55.977334 270.18351 31.569649 270.18351 31.569649 L 223.42512 31.569649 z M 333.29387 209.40066 C 345.12615 209.48466 360.18667 217.58463 364.68523 226.28386 C 373.15005 242.65303 367.06357 259.71795 344.26529 283.53411 C 340.97943 286.96669 333.13994 295.3374 326.84413 302.13556 C 315.59415 314.28318 315.15869 314.49605 301.55265 314.49605 C 293.93828 314.49605 286.99159 313.77909 286.11535 312.90286 C 285.23911 312.02664 284.52217 292.68489 284.52217 269.92151 L 284.52217 228.53334 L 293.84925 222.3611 C 304.61387 215.2374 322.60941 209.32475 333.29387 209.40066 z M 163.11821 209.40737 C 173.80266 209.33146 191.79821 215.24467 202.56283 222.36834 L 211.88991 228.54057 L 211.88991 269.92874 C 211.88991 292.6921 211.17296 312.03387 210.29672 312.9101 C 209.4205 313.78633 202.47327 314.50277 194.85891 314.50277 C 181.25288 314.50277 180.81791 314.29041 169.56794 302.1428 C 163.27215 295.34463 155.43263 286.97393 152.14679 283.54135 C 129.34853 259.7252 123.26151 242.66024 131.72633 226.2911 C 136.22488 217.59188 151.28594 209.49137 163.11821 209.40737 z " /></g></svg>
